brands/lego.svg

<?xml version="1.0" encoding="UTF-8" standalone="no"?>
<!-- Generator: Gravit.io -->

<svg
   style="isolation:isolate"
   viewBox="0 0 16.799999 22.691904"
   width="16.799999pt"
   height="22.691904pt"
   version="1.1"
   id="svg51"
   xmlns="http://www.w3.org/2000/svg"
   xmlns:svg="http://www.w3.org/2000/svg">
  <defs
     id="defs5">
    <clipPath
       id="_clipPath_uoPKfweeOyfTCM6mMn8vm0EJlTG6OUAG">
      <rect
         width="400"
         height="520"
         id="rect2"
         x="0"
         y="0" />
    </clipPath>
  </defs>
  <g
     clip-path="url(#_clipPath_uoPKfweeOyfTCM6mMn8vm0EJlTG6OUAG)"
     id="g49"
     transform="matrix(0.04652631,0,0,0.04397656,-0.87999863,-0.17590624)">
    <g
       id="g25">
      <defs
         id="defs10">
        <filter
           id="DhZzfJVDDUh8MWZY9hhmLYKu7s182dvw"
           x="-0.07926663"
           y="-0.2554875"
           width="1.1585333"
           height="1.510975"
           filterUnits="objectBoundingBox"
           color-interpolation-filters="sRGB">
          <feGaussianBlur
             stdDeviation="4.293609062839028"
             id="feGaussianBlur7" />
        </filter>
      </defs>
      <g
         filter="url(#DhZzfJVDDUh8MWZY9hhmLYKu7s182dvw)"
         id="g14">
        <ellipse
           vector-effect="non-scaling-stroke"
           cx="198.91362"
           cy="492"
           rx="65"
           ry="20.166666"
           fill="#a2a2a2"
           fill-opacity="0.7"
           id="ellipse12" />
      </g>
      <defs
         id="defs19">
        <filter
           id="Bc4ffSFNukYB3E7975ZEZM7rfpIRonis"
           x="0"
           y="0"
           width="1"
           height="1"
           filterUnits="objectBoundingBox"
           color-interpolation-filters="sRGB">
          <feGaussianBlur
             stdDeviation="0"
             id="feGaussianBlur16" />
        </filter>
      </defs>
      <g
         filter="url(#Bc4ffSFNukYB3E7975ZEZM7rfpIRonis)"
         id="g23">
        <path
           d="M 18.914,185.931 C 18.914,85.382 99.774,4 199.384,4 299.14,4 380,85.382 380,185.931 c 0,53.96 -23.438,102.613 -60.645,135.932 -2.051,1.77 -72.95,68.261 -120.411,170.137 C 181.073,419.906 111.785,350.613 79.998,322.306 42.498,288.839 18.914,240.186 18.914,185.931 Z m 292.091,0"
           fill="#ffed00"
           id="path21" />
      </g>
    </g>
    <circle
       vector-effect="non-scaling-stroke"
       cx="199"
       cy="187"
       r="135"
       fill="#000000"
       id="circle27" />
    <circle
       vector-effect="non-scaling-stroke"
       cx="199.5"
       cy="186.64165"
       r="125.5"
       fill="#e3000b"
       id="circle29" />
    <g
       id="g47">
      <path
         d="M 87.26,134.39 88.955,241.74 311,240.61 309.305,134.39 Z m 209.125,33.194 c -0.353,6.934 -2.582,15.567 -4.528,21.369 -7.854,23.279 -16.947,37.749 -37.997,37.749 -6.191,0 -17.194,-1.663 -21.227,-12.701 l -0.991,-2.583 -1.698,2.158 c -6.458,8.279 -16.353,13.142 -26.853,13.197 -8.031,0.035 -14.505,-2.654 -18.644,-7.784 l -1.168,-1.415 -1.203,1.345 c -4.457,4.953 -12.241,7.783 -21.333,7.783 -6.481,0.258 -12.772,-2.22 -17.336,-6.828 l -1.061,-1.203 -1.168,1.167 c -4.528,4.529 -11.604,6.828 -20.519,6.616 -10.862,-0.247 -17.442,-6.297 -17.654,-16.168 -0.354,-15.213 14.399,-47.231 20.519,-56.96 3.273,-6.102 9.706,-9.839 16.628,-9.658 4.953,0 8.314,1.026 10.296,3.148 1.839,1.911 2.193,3.538 2.335,7.465 l 0.212,5.06 2.689,-4.281 c 6.474,-10.437 17.158,-11.852 27.807,-11.852 7.359,0 13.798,2.689 16.381,6.899 l 0.955,1.556 1.415,-1.167 c 6.166,-4.887 13.858,-7.443 21.723,-7.217 9.305,0 16.097,2.299 20.13,6.898 0.92,1.026 1.522,1.769 2.371,3.538 l 1.061,2.158 1.521,-1.839 c 5.967,-7.034 14.843,-10.923 24.058,-10.543 7.925,0 13.939,2.123 17.902,6.262 4.953,5.236 5.66,12.559 5.377,17.795 z"
         fill="#ffed00"
         id="path31" />
      <path
         d="M 87.26,132.695 88.39,244 311,242.305 V 131 Z m 215.387,43.415 c -1.026,8.137 -6.509,23.173 -9.41,29.152 -7.784,16.133 -18.256,28.48 -38.386,28.48 -10.756,0 -19.6,-3.396 -24.766,-10.012 -7.46,6.58 -17.082,10.182 -27.029,10.118 -7.783,0 -14.647,-2.228 -19.883,-6.368 -6.587,4.328 -14.339,6.538 -22.218,6.333 -6.713,0.14 -13.299,-1.841 -18.821,-5.661 -6.496,3.969 -14.054,5.846 -21.652,5.378 -14.399,-0.354 -24.376,-9.482 -24.659,-22.749 -0.354,-17.618 14.505,-49.884 21.475,-61.028 4.664,-8.289 13.486,-13.365 22.996,-13.232 10.614,0 14.505,3.043 16.38,6.899 8.208,-6.934 19.07,-7.359 26.817,-7.359 8.491,0 13.869,2.265 18.433,5.909 6.705,-3.934 14.375,-5.919 22.147,-5.732 10.967,0 19.14,2.547 24.836,8.173 6.882,-5.499 15.501,-8.359 24.305,-8.067 12.312,0 20.414,4.458 25.155,11.074 6.722,9.34 5.519,18.751 4.28,28.692 z"
         fill="#e3000b"
         id="path33" />
      <path
         d="m 273.071,141.934 c -9.669,-0.369 -18.97,3.727 -25.225,11.109 -0.642,-1.43 -1.514,-2.745 -2.583,-3.892 -4.493,-5.059 -11.675,-7.429 -21.333,-7.429 -9.411,0 -17.265,2.936 -22.714,7.571 -2.83,-4.599 -9.623,-7.642 -17.76,-7.642 -10.614,0 -22.218,1.521 -29.117,12.595 -0.141,-3.998 -0.53,-6.121 -2.759,-8.491 -2.724,-2.866 -7.147,-3.644 -11.428,-3.644 -7.473,-0.201 -14.424,3.821 -17.972,10.401 -6.156,9.8 -21.086,42.137 -20.732,57.809 0.212,10.119 7.005,17.407 19.14,17.69 9.481,0.248 16.946,-2.3 21.687,-7.076 4.852,4.93 11.556,7.589 18.468,7.324 8.668,0 17.336,-2.618 22.465,-8.279 4.352,5.307 11.145,8.42 19.883,8.385 10.97,-0.068 21.305,-5.151 28.056,-13.798 3.608,9.8 12.736,13.692 22.713,13.692 21.864,0 31.487,-15.036 39.483,-38.811 1.769,-5.342 4.21,-14.293 4.599,-21.793 0.637,-12.489 -4.635,-25.721 -24.871,-25.721 z"
         fill="#000000"
         id="path35" />
      <path
         d="m 127.628,201.724 c 11.322,-1.981 14.152,2.123 13.798,5.873 -1.061,11.322 -11.463,13.869 -20.52,13.657 -6.509,-0.142 -12.418,-3.149 -12.595,-10.756 -0.283,-13.302 13.303,-44.082 19.671,-54.271 2.972,-4.847 6.545,-7.252 12.277,-7.252 5.448,0 6.792,2.83 6.722,6.155 -0.213,8.881 -14.612,35.981 -19.353,46.559 z"
         fill="#ffffff"
         id="path37" />
      <path
         d="m 164.458,191.252 c -1.269,3.531 -2.367,7.12 -3.291,10.755 3.654,-1.056 7.449,-1.545 11.251,-1.45 5.413,0.141 8.915,2.37 8.915,6.863 0,10.897 -12.028,14.081 -20.413,14.117 -9.163,0 -17.23,-5.236 -17.23,-15.249 0,-11.781 6.368,-29.612 12.383,-41.464 7.323,-14.611 14.859,-16.522 27.772,-16.522 5.661,0 12.206,2.406 12.206,7.784 0,7.429 -6.297,10.26 -12.524,10.613 -2.689,0.177 -6.793,0.319 -9.234,0.142 0,0 -2.087,3.184 -4.281,8.809 11.569,-1.627 16.451,0.991 14.505,7.677 -2.653,9.022 -10.472,9.623 -20.059,7.925 z"
         fill="#ffffff"
         id="path39" />
      <path
         d="m 221.347,163.126 c -3.149,0 -5.165,1.981 -6.722,4.104 -3.326,4.741 -10.614,23.598 -11.746,31.346 -0.743,5.307 1.521,6.368 4.033,6.368 4.033,0 8.527,-4.246 10.083,-11.251 0,0 -7.677,-0.176 -5.554,-6.969 2.052,-6.581 5.943,-7.996 12.382,-8.279 12.701,-0.531 11.428,8.845 10.437,13.869 -3.325,16.239 -14.859,29.258 -31.204,29.258 -11.18,0 -18.149,-6.191 -18.149,-17.583 0,-8.137 4.033,-20.874 7.252,-28.374 6.793,-15.921 13.94,-26.994 32.089,-26.994 10.932,0 19.529,3.891 18.255,14.151 -0.919,7.465 -4.67,11.888 -11.498,12.383 -1.91,0.177 -9.694,0 -7.111,-7.43 0.92,-2.582 1.274,-4.599 -2.547,-4.599 z"
         fill="#ffffff"
         id="path41" />
      <path
         d="m 289.982,176.57 c -1.911,9.552 -6.227,20.874 -10.932,29.294 -7.642,13.797 -16.947,15.708 -25.084,15.602 -8.102,-0.106 -17.265,-3.078 -17.335,-15.602 -0.036,-8.986 3.856,-21.687 7.146,-30.002 5.731,-15.106 11.604,-27.383 30.143,-27.17 21.581,0.247 17.76,19.458 16.062,27.843 z"
         fill="#ffffff"
         id="path43" />
      <path
         d="m 274.557,167.124 c -0.213,5.767 -8.668,28.869 -11.675,33.964 -1.309,2.193 -2.76,4.033 -5.413,4.033 -2.3,0 -3.361,-1.663 -3.432,-3.538 -0.142,-5.201 9.411,-31.31 12.701,-35.556 1.415,-2.264 3.042,-2.618 4.918,-2.582 2.724,0 2.971,1.981 2.901,3.679 z"
         fill="#000000"
         id="path45" />
    </g>
  </g>
</svg>

<?xml version="1.0" encoding="UTF-8" standalone="no"?><!-- Generator: Gravit.io --><svg xmlns="http://www.w3.org/2000/svg" xmlns:xlink="http://www.w3.org/1999/xlink" style="isolation:isolate" viewBox="0 0 400 520" width="400pt" height="520pt"><defs><clipPath id="_clipPath_uoPKfweeOyfTCM6mMn8vm0EJlTG6OUAG"><rect width="400" height="520"/></clipPath></defs><g clip-path="url(#_clipPath_uoPKfweeOyfTCM6mMn8vm0EJlTG6OUAG)"><g><defs><filter id="DhZzfJVDDUh8MWZY9hhmLYKu7s182dvw" x="-200%" y="-200%" width="400%" height="400%" filterUnits="objectBoundingBox" color-interpolation-filters="sRGB"><feGaussianBlur xmlns="http://www.w3.org/2000/svg" stdDeviation="4.293609062839028"/></filter></defs><g filter="url(#DhZzfJVDDUh8MWZY9hhmLYKu7s182dvw)"><ellipse vector-effect="non-scaling-stroke" cx="198.91361582044095" cy="491.99999999999994" rx="65" ry="20.166666666666686" fill="rgb(162,162,162)" fill-opacity="0.7"/></g><defs><filter id="Bc4ffSFNukYB3E7975ZEZM7rfpIRonis" x="-200%" y="-200%" width="400%" height="400%" filterUnits="objectBoundingBox" color-interpolation-filters="sRGB"><feGaussianBlur xmlns="http://www.w3.org/2000/svg" stdDeviation="0"/></filter></defs><g filter="url(#Bc4ffSFNukYB3E7975ZEZM7rfpIRonis)"><path d=" M 18.914 185.931 C 18.914 85.382 99.774 4 199.384 4 C 299.14 4 380 85.382 380 185.931 C 380 239.891 356.562 288.544 319.355 321.863 C 317.304 323.633 246.405 390.124 198.944 492 C 181.073 419.906 111.785 350.613 79.998 322.306 C 42.498 288.839 18.914 240.186 18.914 185.931 Z  M 311.005 185.931" fill="rgb(255,237,0)"/></g></g><circle vector-effect="non-scaling-stroke" cx="199" cy="186.99999999999997" r="135" fill="rgb(0,0,0)"/><circle vector-effect="non-scaling-stroke" cx="199.50000000000003" cy="186.64164608777287" r="125.49999999999997" fill="rgb(227,0,11)"/><g><path d=" M 87.26 134.39 L 88.955 241.74 L 311 240.61 L 309.305 134.39 L 87.26 134.39 Z  M 296.385 167.584 C 296.032 174.518 293.803 183.151 291.857 188.953 C 284.003 212.232 274.91 226.702 253.86 226.702 C 247.669 226.702 236.666 225.039 232.633 214.001 L 231.642 211.418 L 229.944 213.576 C 223.486 221.855 213.591 226.718 203.091 226.773 C 195.06 226.808 188.586 224.119 184.447 218.989 L 183.279 217.574 L 182.076 218.919 C 177.619 223.872 169.835 226.702 160.743 226.702 C 154.262 226.96 147.971 224.482 143.407 219.874 L 142.346 218.671 L 141.178 219.838 C 136.65 224.367 129.574 226.666 120.659 226.454 C 109.797 226.207 103.217 220.157 103.005 210.286 C 102.651 195.073 117.404 163.055 123.524 153.326 C 126.797 147.224 133.23 143.487 140.152 143.668 C 145.105 143.668 148.466 144.694 150.448 146.816 C 152.287 148.727 152.641 150.354 152.783 154.281 L 152.995 159.341 L 155.684 155.06 C 162.158 144.623 172.842 143.208 183.491 143.208 C 190.85 143.208 197.289 145.897 199.872 150.107 L 200.827 151.663 L 202.242 150.496 C 208.408 145.609 216.1 143.053 223.965 143.279 C 233.27 143.279 240.062 145.578 244.095 150.177 C 245.015 151.203 245.617 151.946 246.466 153.715 L 247.527 155.873 L 249.048 154.034 C 255.015 147 263.891 143.111 273.106 143.491 C 281.031 143.491 287.045 145.614 291.008 149.753 C 295.961 154.989 296.668 162.312 296.385 167.548 L 296.385 167.584 Z " fill="rgb(255,237,0)"/><path d=" M 87.26 132.695 L 88.39 244 L 311 242.305 L 311 131 L 87.26 132.695 Z  M 302.647 176.11 C 301.621 184.247 296.138 199.283 293.237 205.262 C 285.453 221.395 274.981 233.742 254.851 233.742 C 244.095 233.742 235.251 230.346 230.085 223.73 C 222.625 230.31 213.003 233.912 203.056 233.848 C 195.273 233.848 188.409 231.62 183.173 227.48 C 176.586 231.808 168.834 234.018 160.955 233.813 C 154.242 233.953 147.656 231.972 142.134 228.152 C 135.638 232.121 128.08 233.998 120.482 233.53 C 106.083 233.176 96.106 224.048 95.823 210.781 C 95.469 193.163 110.328 160.897 117.298 149.753 C 121.962 141.464 130.784 136.388 140.294 136.521 C 150.908 136.521 154.799 139.564 156.674 143.42 C 164.882 136.486 175.744 136.061 183.491 136.061 C 191.982 136.061 197.36 138.326 201.924 141.97 C 208.629 138.036 216.299 136.051 224.071 136.238 C 235.038 136.238 243.211 138.785 248.907 144.411 C 255.789 138.912 264.408 136.052 273.212 136.344 C 285.524 136.344 293.626 140.802 298.367 147.418 C 305.089 156.758 303.886 166.169 302.647 176.11 Z " fill="rgb(227,0,11)"/><path d=" M 273.071 141.934 C 263.402 141.565 254.101 145.661 247.846 153.043 C 247.204 151.613 246.332 150.298 245.263 149.151 C 240.77 144.092 233.588 141.722 223.93 141.722 C 214.519 141.722 206.665 144.658 201.216 149.293 C 198.386 144.694 191.593 141.651 183.456 141.651 C 172.842 141.651 161.238 143.172 154.339 154.246 C 154.198 150.248 153.809 148.125 151.58 145.755 C 148.856 142.889 144.433 142.111 140.152 142.111 C 132.679 141.91 125.728 145.932 122.18 152.512 C 116.024 162.312 101.094 194.649 101.448 210.321 C 101.66 220.44 108.453 227.728 120.588 228.011 C 130.069 228.259 137.534 225.711 142.275 220.935 C 147.127 225.865 153.831 228.524 160.743 228.259 C 169.411 228.259 178.079 225.641 183.208 219.98 C 187.56 225.287 194.353 228.4 203.091 228.365 C 214.061 228.297 224.396 223.214 231.147 214.567 C 234.755 224.367 243.883 228.259 253.86 228.259 C 275.724 228.259 285.347 213.223 293.343 189.448 C 295.112 184.106 297.553 175.155 297.942 167.655 C 298.579 155.166 293.307 141.934 273.071 141.934 Z " fill="rgb(0,0,0)"/><path d=" M 127.628 201.724 C 138.95 199.743 141.78 203.847 141.426 207.597 C 140.365 218.919 129.963 221.466 120.906 221.254 C 114.397 221.112 108.488 218.105 108.311 210.498 C 108.028 197.196 121.614 166.416 127.982 156.227 C 130.954 151.38 134.527 148.975 140.259 148.975 C 145.707 148.975 147.051 151.805 146.981 155.13 C 146.768 164.011 132.369 191.111 127.628 201.689 L 127.628 201.724 Z " fill="rgb(255,255,255)"/><path d=" M 164.458 191.252 C 163.189 194.783 162.091 198.372 161.167 202.007 C 164.821 200.951 168.616 200.462 172.418 200.557 C 177.831 200.698 181.333 202.927 181.333 207.42 C 181.333 218.317 169.305 221.501 160.92 221.537 C 151.757 221.537 143.69 216.301 143.69 206.288 C 143.69 194.507 150.058 176.676 156.073 164.824 C 163.396 150.213 170.932 148.302 183.845 148.302 C 189.506 148.302 196.051 150.708 196.051 156.086 C 196.051 163.515 189.754 166.346 183.527 166.699 C 180.838 166.876 176.734 167.018 174.293 166.841 C 174.293 166.841 172.206 170.025 170.012 175.65 C 181.581 174.023 186.463 176.641 184.517 183.327 C 181.864 192.349 174.045 192.95 164.458 191.252 Z " fill="rgb(255,255,255)"/><path d=" M 221.347 163.126 C 218.198 163.126 216.182 165.107 214.625 167.23 C 211.299 171.971 204.011 190.828 202.879 198.576 C 202.136 203.883 204.4 204.944 206.912 204.944 C 210.945 204.944 215.439 200.698 216.995 193.693 C 216.995 193.693 209.318 193.517 211.441 186.724 C 213.493 180.143 217.384 178.728 223.823 178.445 C 236.524 177.914 235.251 187.29 234.26 192.314 C 230.935 208.553 219.401 221.572 203.056 221.572 C 191.876 221.572 184.907 215.381 184.907 203.989 C 184.907 195.852 188.94 183.115 192.159 175.615 C 198.952 159.694 206.099 148.621 224.248 148.621 C 235.18 148.621 243.777 152.512 242.503 162.772 C 241.584 170.237 237.833 174.66 231.005 175.155 C 229.095 175.332 221.311 175.155 223.894 167.725 C 224.814 165.143 225.168 163.126 221.347 163.126 Z " fill="rgb(255,255,255)"/><path d=" M 289.982 176.57 C 288.071 186.122 283.755 197.444 279.05 205.864 C 271.408 219.661 262.103 221.572 253.966 221.466 C 245.864 221.36 236.701 218.388 236.631 205.864 C 236.595 196.878 240.487 184.177 243.777 175.862 C 249.508 160.756 255.381 148.479 273.92 148.692 C 295.501 148.939 291.68 168.15 289.982 176.535 L 289.982 176.57 Z " fill="rgb(255,255,255)"/><path d=" M 274.557 167.124 C 274.344 172.891 265.889 195.993 262.882 201.088 C 261.573 203.281 260.122 205.121 257.469 205.121 C 255.169 205.121 254.108 203.458 254.037 201.583 C 253.895 196.382 263.448 170.273 266.738 166.027 C 268.153 163.763 269.78 163.409 271.656 163.445 C 274.38 163.445 274.627 165.426 274.557 167.124 Z " fill="rgb(0,0,0)"/></g></g></svg>
